X:776
T:Orkney
T:Maoile Nan Crogaichean
R:Reel
N:"Very old set."
B:The Athole Collection
M:C|
L:1/8
K:D
D>GF>E D2DB,|A,2 A,B, E2E2|D>GF>E D2DB,|A,2 A,B, D2D:|
d>ef>e d2dB|A2AB e2e2|d>ef>e d2dB|A2AB d2d2|dgfe d2dB|
A2AB e2ef|afge dfec|dBAF D2D||

